src/assets/rclone-manager-2.svg

<svg width="23" height="23" viewBox="0 0 23 23" fill="none" xmlns="http://www.w3.org/2000/svg">
    <path
        d="M11.25 22.125C17.4632 22.125 22.5 17.1721 22.5 11.0625C22.5 4.95285 17.4632 0 11.25 0C5.0368 0 0 4.95285 0 11.0625C0 17.1721 5.0368 22.125 11.25 22.125Z"
        fill="url(#paint0_linear_394_918)" />
    <path
        d="M17.2539 11.2786C16.8389 10.5598 16.2351 10.0181 15.5411 9.67987C15.4523 10.1539 15.2844 10.6212 15.0298 11.0621L14.6282 11.759C14.8957 11.9076 15.1286 12.1264 15.2928 12.4108C15.7753 13.2464 15.4888 14.3153 14.6531 14.7978C13.8175 15.2803 12.7486 14.9939 12.2661 14.1582L11.4558 12.7568H10.148L9.49414 13.8892L10.3051 15.2904C11.413 17.2093 13.8666 17.8668 15.7855 16.7588C17.7042 15.651 18.3616 13.1975 17.2539 11.2786Z"
        fill="#70CAF2" />
    <path
        d="M13.2355 5.39367C11.3166 4.2859 8.86312 4.94334 7.75534 6.86205C7.34018 7.58082 7.17314 8.37464 7.22713 9.14475C7.68198 8.98467 8.17069 8.89645 8.6799 8.89645L9.48407 8.8957C9.47899 8.58983 9.55216 8.2787 9.7162 7.99447C10.1989 7.1587 11.2675 6.87221 12.1033 7.3549C12.9391 7.8374 13.2254 8.90604 12.7429 9.74181L11.9346 11.1444L12.5883 12.277L13.896 12.2768L14.7039 10.8739C15.8119 8.95514 15.1545 6.50145 13.2355 5.39367Z"
        fill="#B4E3F9" />
    <path
        d="M9.97944 15.4786L9.57651 14.7825C9.31409 14.9399 9.00823 15.0321 8.67998 15.0321C7.71478 15.0321 6.93244 14.2497 6.93244 13.2845C6.93244 12.3195 7.71478 11.5372 8.67998 11.5372L10.2987 11.5361L10.9527 10.4037L10.2987 9.27124L8.67979 9.27274C6.46404 9.27274 4.66797 11.069 4.66797 13.2845C4.66797 15.5003 6.46404 17.2965 8.67979 17.2965C9.50954 17.2965 10.2802 17.0445 10.92 16.6131C10.5539 16.2992 10.234 15.9194 9.97944 15.4786Z"
        fill="#3F79AD" />
    <defs>
        <linearGradient id="paint0_linear_394_918" x1="11.2387" y1="-3.46007e-05" x2="11.2387" y2="21.9481"
            gradientUnits="userSpaceOnUse">
            <stop stop-color="white" />
            <stop offset="1" stop-color="#DBDBDB" />
        </linearGradient>
    </defs>
</svg>

<svg xmlns="http://www.w3.org/2000/svg" width="23" height="23" fill="none" viewBox="0 0 23 23"><path fill="url(#a)" d="M11.25 22.125c6.213 0 11.25-4.953 11.25-11.062C22.5 4.953 17.463 0 11.25 0S0 4.953 0 11.063s5.037 11.062 11.25 11.062"/><path fill="#70caf2" d="M17.254 11.279a4 4 0 0 0-1.713-1.6 4.4 4.4 0 0 1-.511 1.383l-.402.697a1.748 1.748 0 1 1-2.362 2.4l-.81-1.402h-1.308l-.654 1.132.811 1.401a4.012 4.012 0 1 0 6.949-4.011"/><path fill="#b4e3f9" d="M13.236 5.394a4.012 4.012 0 0 0-6.009 3.75c.455-.16.944-.248 1.453-.248h.804a1.747 1.747 0 1 1 3.259.846l-.808 1.402.653 1.133h1.308l.808-1.403a4.01 4.01 0 0 0-1.469-5.48"/><path fill="#3f79ad" d="m9.98 15.479-.403-.696a1.748 1.748 0 1 1-.897-3.245l1.619-.002.654-1.132-.654-1.133-1.62.002a4.012 4.012 0 1 0 2.241 7.34 4.4 4.4 0 0 1-.94-1.134"/><defs><linearGradient id="a" x1="11.239" x2="11.239" y1="0" y2="21.948" gradientUnits="userSpaceOnUse"><stop stop-color="#fff"/><stop offset="1" stop-color="#dbdbdb"/></linearGradient></defs></svg>
